Adwaita++-Dark/actions/16/distribute-horizontal-left.svg

<svg height="16" viewBox="0 0 16 16" width="16" xmlns="http://www.w3.org/2000/svg">
  <path d="m0 1v14h2v-2h5v-4h-5v-2h5v-4h-5v-2zm9 0v14h2v-2h5v-4h-5v-2h5v-4h-5v-2z" fill="#e6ddff"/>
</svg>

<svg xmlns="http://www.w3.org/2000/svg" width="16" height="16" viewBox="0 0 16 16">
 <defs>
  <style id="current-color-scheme" type="text/css">
   .ColorScheme-Text { color:#E6DDFF; } .ColorScheme-Highlight { color:#4285f4; }
  </style>
 </defs>
 <path style="fill:currentColor" class="ColorScheme-Text" d="M 0 1 L 0 15 L 2 15 L 2 13 L 7 13 L 7 9 L 2 9 L 2 7 L 7 7 L 7 3 L 2 3 L 2 1 L 0 1 z M 9 1 L 9 15 L 11 15 L 11 13 L 16 13 L 16 9 L 11 9 L 11 7 L 16 7 L 16 3 L 11 3 L 11 1 L 9 1 z"/>
</svg>
